X:70
T:Olivia's Welcome to Terra
R:reel
C: 1993, 2010 L.E. McCullough 
M:4/4
L:1/8
K:G
|:~G3A B~G3|~A3 B c~e3|d~g3 edBA|(3B^cd AF GFED|
~G3A B~G3|~A3 B c~e3|d~g3 edBA|1 (3B^cd AF ~G3F:|(3B^cd AF ~G3A|]
B~g3 ~f3A|B~g3 edBA|~B3A GABd|(3efg dB BAGA|
B~g3 ~f3A|B~g3 ageg|b~g3 edBA|1 (3B^cd AF ~G3A:|2 (3B^cd AF ~G3D|]

